X:1
T:O mille fois la liberté
T:O mille fois la liberté
T:Pierre de Manchicourt
C:Pierre de Manchicourt
%%score [ 1 [ 2 3 ] 4 ]
L:1/8
Q:1/4=84
M:2/2
K:F
V:1 treble nm="Superius" snm="S"
V:2 treble-8 nm="Tenor 1" snm="T 1"
V:3 treble-8 nm="Tenor 2" snm="T 2"
V:4 bass nm="Bassus" snm="B"
V:1
 z4 D4 | F6 G2 |: A2 A2 B2 B2 | AG FE D2 E2 | FE FG AB cA | BA AG/F/ G4 | F2 D2 E2 C2 | D4 z4 | %8
w: O|mil- le|fois la li- ber-|té _ _ _ _ heu-|reu- * * * * * * *|* * * * * se,|mi- s'en- * tre|mains,|
w: ||veil en flam- me|a- * * * * mou-|reu- * * * * * * *|* * * * * se|qui me pro- *|met,|
 z2 A2 G2 B2 | A2 G2 G2 F2 | B2 G2 A2 B2- | B2 G2 z2 A2 | G2 B2 A2 G2 | G2 F2 E2 DE | FG A3 G G2- | %15
w: mi- s'en- tre|mains de da- me|qui la _ _|_ vault, mi-|s'en- tre mains de|da- me qui la- *||
w: qui me pro-|met le poinct qui|me def- * *|* fault qui-|me pro- met le|poinct qui me def- *||
 G2 F2 G2 D2 |1 F6 G2 :|2 G2 F2 G4 || z2 G2 G2 c2 | B2 A2 B2 A2 | A2 G2 A2 B2 | A2 G2 AF B2- | %22
w: * * vault, O|doulx tra-||je vis con-|tent as- * *|pre feu _ _|_ _ _ _ _|
w: ||(def)- * fault|||||
 B2 A2 B4 | z4 z2 B2 | B2 A2 G2 G2 | F4 z4 | z2 F2 F2 E2 | D2 D2 C2 D2 | E2 F3 E D2- | D2 C2 D4 | %30
w: * et chault,|con-|si- de- rant la|fin,|con- si- de-|rant la fin que|je pour- * chas-|* * se,|
w: ||||||||
 z4 D4 | E2 E2 D2 A2 | B2 B2 A2 A2 | GF GA B2 A2 | D2 d4 c2 | d2 B2 c2 BA | B2 A4 G2 | A4 z2 A2 | %38
w: et|l'en- du- rer, et|l'en- du- rer ay-|ant _ _ _ _ sa|bo- * ne|gra- * * * *||ce, m'est|
w: ||||||||
 A2 A2 F2 G2 | A4 D2 E2 | FG AB c2 A2- | A2 GF E2 F2- | FD G4 F2 | G4 z2 d2 | d2 d2 B2 c2 | %45
w: plus de bien que|ne puis ex-|pri- * * * * *|||mer, m'est|plus de bien que|
w: |||||||
 d2 B2 c4 | B2 c2 A2 B2- | B2 AG F4 |: z2 D2 F4- | F2 G2 A2 A2 | B2 B2 AG FE | D2 E2 FE FG | %52
w: ne puis ex-|pri- * * *|* * * mer,-|mais s'il|_ ad- vient qu'u-|ne nuict je _ _ _|_ l'em- bras- * * *|
w: |||||||
 AB cA BA AG/F/ | G4 F2 D2 | E2 C2 D4 | z4 z2 A2 | G2 B2 A2 G2 | G2 F2 B2 G2 | A2 B4 G2 | %59
w: |* se, qui|po- lra lors,|qui|pol- dra lors mon|plai- sir es- *|* ti- mer,|
w: |||||||
 z2 A2 G2 B2 | A2 G2 G2 F2 | E2 DE FG A2- |1 AG G4 F2 :|2 AG G4 F2 || G8 |] %65
w: qui pol- dra|de lors mon plai-|sir es- * * * *|* * sti- mer,-|(es)- * * sti-|mer.|
w: ||||||
V:2
 d4 B2 G2 | d2 A2 B2 B2 |: A2 f4 ed | c2 d4 cB | c2 d2 f2 e2- | ed d4 c2 | d4 z4 | z2 d2 c2 e2 | %8
w: O mil- le|fois la li- ber-|té heu- * *|reu- * * *|||se,|mi- s'en- tre|
w: ||veil en flam- *|me a- mou- *|reu- * * *||se,|qui me pro-|
 d2 f2 e2 d2 | dc cB d4- | d4 z4 | z2 e2 d2 f2 | e2 d2 d2 G2 | A3 G/F/ GA Bc | de f2 d4 | %15
w: mains de da- me|qui _ la _ vault,|_|mi- s'en- tre|mains de da- me|qui _ _ la _ _ _|_ _ _ vault,|
w: met le poinct qui|me _ def- * fault,|_|qui me pro-|met le poinct qui|me _ _ _ _ _ _|_ _ def- fault,|
 z2 d2 B2 G2 |1 d2 A2 B2 B2 :|2 d4 z2 d2 || d2 e2 d2 c2 | d2 e2 f4 | z2 d2 d2 g2 | %21
w: O doulx tra-|veil, O doulx tra-|* je|vis con- tent en|as- pre feu,|je vis con-|
w: ||(fault) *||||
"^b" f2 e2 f2 g2 |"^b" f3 e dc BA | G2 A2 B3 c | d4 B4 |"^b" z2 f2 f2 e2 | d2 d2 c2 c2 | %27
w: tent en as- pre|feu _ _ _ _ _|et _ _ _|_ chalt,|con- si- de-|rant la fin que|
w: ||||||
 A2 B2 A3 B | c4 F2 G2 | A4 z4 | A4 B2 B2 | A8 | z4 d4 | e2 e2 d2 f2 | f2 d2 e2 f2- | %35
w: je pour- chas- *||se,|et l'en- du-|rer,|et|l'en- du- rer ay-|ant sa bon- *|
w: ||||||||
 f2 ed c2 d2- | d2 c2 f2 ed | c2 d2 f4 | e4 z2 d2 | d2 d2 B2 c2 | d4 c2 f2- | fe d4 c2 | d6 A2 | %43
w: * ne _ gra- *|||ce, m'est|plus de bien que|ne puis ex-|* * pri- *||
w: ||||||||
 BG g4 f2 | g4 z2 g2 | g2 g2 e2 f2 | g4 f2 d2- | d2 c2 d2 d2 |: B2 G2 d2 A2 | B2 B2 A2 f2- | %50
w: |mer, m'est|plus de bien que|ne puis ex-|* pri- mer, mais|s'il ad- vient qu'u-|ne nuict je l'em-|
w: |||||||
 f2 ed c2 d2- | d2 cB c2 d2 | f2 e3 d d2- | d2 c2 d4 | z4 z2 d2 | c2 e2 d2 f2 | e2 d2 dc cB | d8 | %58
w: * * * bras- *|||* * se,|qui|pol- dra lors mon|plai- sir es- * ti- *|mer,|
w: ||||||||
 z4 z2 e2 | d2 f2 e2 d2 | d2 G2 A3 G/F/ | GA Bc de f2 |1 d4 z2 d2 :|2 d8 ||"^-natural" B8 |] %65
w: qui|pol- dra lors mon|plai- sir es- * *|sti- * * * * * *|mer, mais|mer.|_|
w: |||||||
V:3
 z8 | z4 D4 |: F6 G2 | A2 A2 B2 B2 | AG FE D2 E2 | F2 A4 G2 | A4 A2 G2 | B4 A2 G2 | G2 F2 B3 A/G/ | %9
w: |O|mil- le|fois la li- ber-|té _ _ _ _ heu-|reu- * *|se, mi- s'en-|tre mains de|da- me qui _ _|
w: ||doulx tra-|veil en flam- me|a- * * * * mou-|reu- * *|se qui me|pro- met le|poinct qui me _ _|
 F2 E2 D4 |"^b" z2 d2 c2 e2 | d2 c2 B2 A2 | B2 G2 AB cB/c/ | d2 AB cA d2- | d2 c2 B4 | A4 G4 |1 %16
w: _ la vault,|mi- s'en- tre|mains de da- me|qui la _ _ _ _ _|_ _ _ _ _ _||* vault,|
w: _ def- fault,|qui me pro-|met le poinct qui|me def- * * * * *||||
 z4 D4 :|2 A4 z2 G2 || G2 c2 B2 A2 | B2 c2 d3 c | B4 A2 G2 |"^b" A2 B2 d2 e2 | c4 z2 B2 | %23
w: O|* je|vis con- tent en|as- pre feu, _|_ en as-|pre feu _ et|chault, con-|
w: |fault, *||||||
 B2 A2 G2 G2 | FG AF G3 A | B2 F2 G2 A2 | B4 A3 G | F2 G2 E2 F2 | G2 A2 D2 D2 | E2 E2 D2 D2 | %30
w: si- de- rant la|_ _ _ _ _ _|fin, con- si- de-|rant la _|_ fin que je|pour- chas- * se,|et l'en du- rer,|
w: |||||||
 E2 F3 D G2- | G2 FE F2 F2 | G4 D4 | z4 z2 A2 | B2 B2 A2 A2 | F2 G2 A2 F2 | G2 A2 B4 | %37
w: et l'en- * *|* * * * du-|rer, _|et|l'en- du- rer ay-|ant sa bon- ne|gra- * *|
w: |||||||
 A3 G FD d2- | d2 c2 d2 B2 | A4 z4 | z2 A2 A2 A2 | F2 G2 A2 A2 | B4 A2 d2- | d2 cB AG A2 | %44
w: ||ce,|m'est plus de|bien que ne puis|ex- pri- *||
w: |||||||
 GA Bc d2 e2- | ed d4 c2 | d2 e2 c2 B2 | G4 A4 |: G4 z4 | D4 F4- | F2 G2 A2 A2 | B2 B2 AG FE | %52
w: * * * * mer, m'est|_ plus de bien|que ne puis ex-|pri- *|mer,|mais s'il|_ ad- vient qu'u-|ne nuict je _ _ _|
w: ||||||||
 D2 E2 F2 A2- | A2 G2 A4 | A2 G2 B4 | A2 G2 G2 F2 | B3 A/G/ F2 E2 | D4 z2 d2 | c2 e2 d2 c2 | %59
w: _ l'em- bras- *|* * se,|qui pol- dra|lors mon plai- sir|es- * * * ti-|mer, qui|pol- dra lors mon|
w: |||||||
 B2 A2 B2 G2 | AB cB/c/ d2 AB | cA d4 c2 |1 B4 A4 :|2 B4 A4 || G8 |] %65
w: plai- sir es- *|||* sti-|* sti-|mer.|
w: ||||||
V:4
 z8 | D,4 B,,2 G,,2 |: D,4 B,,4 | F,2 D,2 G,2 G,2 | F,2 D,4 C,2 | D,4 E,4 | D,2 D,2 C,2 E,2 | %7
w: |O mil- le|fois la|li- ber- té heu-|reu- * *||se, mi- s'en- tre|
w: ||veil en|flam- me a- mou-|reu- * *||se, qui me pro-|
 D,2 B,,2 F,2 C,2 | D,2 D,2 G,4 | z4 z2 A,2 | G,2 B,2 A,2 G,2 | G,2 C,2 G,2 F,2 | G,4 F,2 E,2 | %13
w: mains de da- me|qui la vault,|mi-|s'en- tre mains de|da- me qui _|la _ _|
w: met le poinct qui|me def- fault,|qui|me pro- met le|poinct qui me _|def- * *|
 D,4 C,2 B,,2- | B,,A,, F,,2 G,,4 | D,4 G,,4 |1 z2 D,2 B,,2 G,,2 :|2 D,4 G,,4 || z8 | z4 z2 D,2 | %20
w: _ _ _||* vault,|O doulx tra-|||je|
w: ||||(def)- fault,|||
 D,2 G,2 F,2 _E,2 | F,2 G,2 F,2 E,2 |"^b" F,G, A,F, G,4- |"^b" G,2 F,2 E,4 |"^b" D,4 z2 E,2 | %25
w: vis con- tent en|as- pre feu et|_ _ _ _ _||chault, con-|
w: |||||
 D,2 D,2 C,2 C,2 | B,,C, D,E, F,2 C,2 | D,2 G,,2 A,,2 D,2 | C,2 B,,A,, B,,4 | A,,2 A,,2 B,,2 B,,2 | %30
w: si- de- rant la|fin _ _ _ _ que|je pour- chas- *||se, et l'en- du-|
w: |||||
 A,,2 D,2 B,,2 G,,2 | C,2 C,2 D,4 | G,,2 G,4 F,2 | E,2 C,2 D,4 | z4 z2 A,,2 | B,,2 B,,2 A,,2 D,2 | %36
w: rer- ay- ant sa|bon- ne gra-||* * ce,|et|en- du- rer ay-|
w: ||||||
 B,,2 C,2 D,2 E,2 | F,2 D,3 E,F,G, | A,4 D,2 G,2- | G,2 F,2 G,2 E,2 | D,4 z4 | z8 | D,4 D,2 D,2 | %43
w: ant sa bon- ne|gra- * * * *|||ce,||m'est plus de|
w: |||||||
 B,,2 C,2 D,2 D,2 | G,,2 G,4 C,2 | G,A,B,G, A,4 | G,2 E,2 F,2 G,2 | E,4 D,4 |: G,,4 z2 D,2 | %49
w: bien que ne puis|ex- * pri-||mer, que ne puis|ex- pri-|mer, mais|
w: ||||||
 B,,2 G,,2 D,4 | B,,4 F,2 D,2 | G,2 G,2 F,2 D,2- | D,2 C,2 D,4 | E,4 D,2 D,2 | C,2 E,2 D,2 B,,2 | %55
w: s'il ad- vient|qu'u- ne nuict|je l'em- bras- *||* se, qui|pol- dra lors mon|
w: ||||||
 F,2 C,2 D,2 D,2 | G,4 z4 |"^#" z2 A,2 G,2 B,2 | A,2 G,2 G,2 C,2 |"^#" G,2 F,2 G,4 | F,2 E,2 D,4 | %61
w: plai- sir es- ti-|mer,|qui pol- dra|lors mon plai- sir|es- * ti-||
w: ||||||
 C,2 B,,3 A,, F,,2 |1 G,,4 D,4 :|2 G,,4 D,4 || G,,8 |] %65
w: ||es- ti-|mer.|
w: ||||

